usr/share/arcologout/configure_blur.svg

<?xml version="1.0" encoding="UTF-8" standalone="no"?>
<svg
   xmlns:dc="http://purl.org/dc/elements/1.1/"
   xmlns:cc="http://creativecommons.org/ns#"
   xmlns:rdf="http://www.w3.org/1999/02/22-rdf-syntax-ns#"
   xmlns:svg="http://www.w3.org/2000/svg"
   xmlns="http://www.w3.org/2000/svg"
   xmlns:sodipodi="http://sodipodi.sourceforge.net/DTD/sodipodi-0.dtd"
   xmlns:inkscape="http://www.inkscape.org/namespaces/inkscape"
   width="24px"
   height="24px"
   viewBox="0 0 24 24"
   version="1.1"
   id="svg12"
   sodipodi:docname="configure_blur.svg"
   inkscape:version="0.92.4 5da689c313, 2019-01-14">
  <metadata
     id="metadata16">
    <rdf:RDF>
      <cc:Work
         rdf:about="">
        <dc:format>image/svg+xml</dc:format>
        <dc:type
           rdf:resource="http://purl.org/dc/dcmitype/StillImage" />
        <dc:title>configure</dc:title>
      </cc:Work>
    </rdf:RDF>
  </metadata>
  <sodipodi:namedview
     pagecolor="#ffffff"
     bordercolor="#666666"
     borderopacity="1"
     objecttolerance="10"
     gridtolerance="10"
     guidetolerance="10"
     inkscape:pageopacity="0"
     inkscape:pageshadow="2"
     inkscape:window-width="1920"
     inkscape:window-height="1080"
     id="namedview14"
     showgrid="false"
     inkscape:pagecheckerboard="true"
     inkscape:zoom="9.8333333"
     inkscape:cx="-9.6610169"
     inkscape:cy="12"
     inkscape:window-x="0"
     inkscape:window-y="0"
     inkscape:window-maximized="0"
     inkscape:current-layer="svg12" />
  <!-- Generator: Sketch 51.3 (57544) - http://www.bohemiancoding.com/sketch -->
  <title
     id="title2">configure</title>
  <g
     style="fill:#00ffcc;fill-rule:evenodd;stroke:#55ffdd;stroke-width:1;filter:url(#filter835)"
     id="g829">
    <g
       style="fill:#00ffcc;fill-rule:nonzero;stroke:#55ffdd"
       transform="translate(5,5)"
       id="g827">
      <path
         style="fill:#00ffcc;stroke:#55ffdd"
         inkscape:connector-curvature="0"
         id="path823"
         d="M 6.1698091,1 6.0392026,2.5606647 5.4430517,2.7814861 C 4.964721,2.9586655 4.5199962,3.2158817 4.1278883,3.5421395 L 3.6383926,3.9494299 2.2186584,3.2809303 1.388449,4.7189717 2.6801979,5.6160655 2.5686994,6.2464389 c -0.044329,0.25062 -0.067316,0.504549 -0.0687,0.7529276 1.619e-4,0.255483 0.02208,0.5104881 0.065518,0.7622514 L 2.6739188,8.3899003 1.388694,9.2814527 2.2186842,10.719114 3.6321408,10.053667 4.1211017,10.457426 c 0.3934249,0.324871 0.8392336,0.580468 1.3183593,0.75586 l 0.6010789,0.220035 0.1275446,1.568632 H 7.8262846 L 7.956891,11.441288 8.5530421,11.220467 C 9.0313726,11.043288 9.4760972,10.786072 9.868205,10.459814 l 0.489496,-0.40729 1.419734,0.668499 0.83021,-1.4380414 -1.29175,-0.8970942 0.111499,-0.6303738 c 0.04433,-0.2506201 0.06732,-0.5045491 0.0687,-0.7529271 -1.62e-4,-0.255483 -0.02208,-0.5104882 -0.06552,-0.7622514 L 11.322175,5.6120528 12.6074,4.7205004 11.77741,3.2828389 10.363953,3.9482863 9.8749923,3.5445271 C 9.4815674,3.2196567 9.0357586,2.9640597 8.5566327,2.7886677 L 7.9555538,2.5686328 7.8280092,1 Z M 5.25,0 h 3.5 l 0.1503906,1.8496094 c 0.5855983,0.214368 1.1304754,0.5267643 1.6113284,0.9238281 l 1.671875,-0.7871094 1.75,3.03125 -1.517578,1.0527344 c 0.05309,0.3077106 0.07988,0.6193836 0.08008,0.9316406 -0.0017,0.3110634 -0.0298,0.621421 -0.08399,0.9277344 l 1.521485,1.0566406 -1.75,3.0312499 -1.675782,-0.789062 c -0.479243,0.398759 -1.0227952,0.713135 -1.6074214,0.929687 l -0.1542968,1.84375 h -3.5 L 5.0957031,12.152344 C 4.5101049,11.937976 3.9652276,11.62558 3.484375,11.228516 L 1.8125,12.015625 0.0625,8.984375 1.5800781,7.9316406 C 1.5269873,7.62393 1.5001978,7.312257 1.5,7 1.5017091,6.6889366 1.5298046,6.378579 1.5839844,6.0722656 L 0.0625,5.015625 1.8125,1.984375 3.4882812,2.7734375 C 3.9675242,2.374678 4.5110767,2.0603025 5.0957031,1.84375 Z" />
      <path
         style="fill:#00ffcc;stroke:#55ffdd"
         inkscape:connector-curvature="0"
         id="path825"
         d="M 7,5 C 8.1045695,5 9,5.8954305 9,7 9,8.1045695 8.1045695,9 7,9 5.8954305,9 5,8.1045695 5,7 5,5.8954305 5.8954305,5 7,5 Z M 7,8 C 7.5522847,8 8,7.5522847 8,7 8,6.4477152 7.5522847,6 7,6 6.4477152,6 6,6.4477152 6,7 6,7.5522847 6.4477152,8 7,8 Z" />
    </g>
  </g>
  <desc
     id="desc4">Created with Sketch.</desc>
  <defs
     id="defs6">
    <filter
       inkscape:collect="always"
       style="color-interpolation-filters:sRGB"
       id="filter835"
       x="-0.24113207"
       width="1.4822641"
       y="-0.23887851"
       height="1.477757">
      <feGaussianBlur
         inkscape:collect="always"
         stdDeviation="1.3936523"
         id="feGaussianBlur837" />
    </filter>
  </defs>
  <g
     id="configure"
     style="fill:#80ffe6;fill-rule:evenodd;stroke:none;stroke-width:1">
    <g
       id="10"
       transform="translate(5,5)"
       style="fill:#80ffe6;fill-rule:nonzero">
      <path
         d="M 6.1698091,1 6.0392026,2.5606647 5.4430517,2.7814861 C 4.964721,2.9586655 4.5199962,3.2158817 4.1278883,3.5421395 L 3.6383926,3.9494299 2.2186584,3.2809303 1.388449,4.7189717 2.6801979,5.6160655 2.5686994,6.2464389 c -0.044329,0.25062 -0.067316,0.504549 -0.0687,0.7529276 1.619e-4,0.255483 0.02208,0.5104881 0.065518,0.7622514 L 2.6739188,8.3899003 1.388694,9.2814527 2.2186842,10.719114 3.6321408,10.053667 4.1211017,10.457426 c 0.3934249,0.324871 0.8392336,0.580468 1.3183593,0.75586 l 0.6010789,0.220035 0.1275446,1.568632 H 7.8262846 L 7.956891,11.441288 8.5530421,11.220467 C 9.0313726,11.043288 9.4760972,10.786072 9.868205,10.459814 l 0.489496,-0.40729 1.419734,0.668499 0.83021,-1.4380414 -1.29175,-0.8970942 0.111499,-0.6303738 c 0.04433,-0.2506201 0.06732,-0.5045491 0.0687,-0.7529271 -1.62e-4,-0.255483 -0.02208,-0.5104882 -0.06552,-0.7622514 L 11.322175,5.6120528 12.6074,4.7205004 11.77741,3.2828389 10.363953,3.9482863 9.8749923,3.5445271 C 9.4815674,3.2196567 9.0357586,2.9640597 8.5566327,2.7886677 L 7.9555538,2.5686328 7.8280092,1 Z M 5.25,0 h 3.5 l 0.1503906,1.8496094 c 0.5855983,0.214368 1.1304754,0.5267643 1.6113284,0.9238281 l 1.671875,-0.7871094 1.75,3.03125 -1.517578,1.0527344 c 0.05309,0.3077106 0.07988,0.6193836 0.08008,0.9316406 -0.0017,0.3110634 -0.0298,0.621421 -0.08399,0.9277344 l 1.521485,1.0566406 -1.75,3.0312499 -1.675782,-0.789062 c -0.479243,0.398759 -1.0227952,0.713135 -1.6074214,0.929687 l -0.1542968,1.84375 h -3.5 L 5.0957031,12.152344 C 4.5101049,11.937976 3.9652276,11.62558 3.484375,11.228516 L 1.8125,12.015625 0.0625,8.984375 1.5800781,7.9316406 C 1.5269873,7.62393 1.5001978,7.312257 1.5,7 1.5017091,6.6889366 1.5298046,6.378579 1.5839844,6.0722656 L 0.0625,5.015625 1.8125,1.984375 3.4882812,2.7734375 C 3.9675242,2.374678 4.5110767,2.0603025 5.0957031,1.84375 Z"
         id="Path"
         inkscape:connector-curvature="0"
         style="fill:#80ffe6" />
      <path
         d="M 7,5 C 8.1045695,5 9,5.8954305 9,7 9,8.1045695 8.1045695,9 7,9 5.8954305,9 5,8.1045695 5,7 5,5.8954305 5.8954305,5 7,5 Z M 7,8 C 7.5522847,8 8,7.5522847 8,7 8,6.4477152 7.5522847,6 7,6 6.4477152,6 6,6.4477152 6,7 6,7.5522847 6.4477152,8 7,8 Z"
         id="Combined-Shape"
         inkscape:connector-curvature="0"
         style="fill:#80ffe6" />
    </g>
  </g>
</svg>

<?xml version="1.0" encoding="UTF-8"?>
<svg width="24px" height="24px" version="1.1" viewBox="0 0 24 24" xmlns="http://www.w3.org/2000/svg" xmlns:cc="http://creativecommons.org/ns#" xmlns:dc="http://purl.org/dc/elements/1.1/" xmlns:rdf="http://www.w3.org/1999/02/22-rdf-syntax-ns#">
 <metadata>
  <rdf:RDF>
   <cc:Work rdf:about="">
    <dc:format>image/svg+xml</dc:format>
    <dc:type rdf:resource="http://purl.org/dc/dcmitype/StillImage"/>
    <dc:title>configure</dc:title>
   </cc:Work>
  </rdf:RDF>
 </metadata>
 <!-- Generator: Sketch 51.3 (57544) - http://www.bohemiancoding.com/sketch -->
 <title>configure</title>
 <g fill="#0fc" fill-rule="evenodd" filter="url(#filter835)" stroke="#ddd">
  <g transform="translate(5,5)" fill="#0fc" fill-rule="nonzero" stroke="#ddd">
   <path d="m6.1698 1-0.13061 1.5607-0.59615 0.22082c-0.47833 0.17718-0.92306 0.4344-1.3152 0.76065l-0.4895 0.40729-1.4197-0.6685-0.83021 1.438 1.2917 0.89709-0.1115 0.63037c-0.044329 0.25062-0.067316 0.50455-0.0687 0.75293 1.619e-4 0.25548 0.02208 0.51049 0.065518 0.76225l0.1084 0.62828-1.2852 0.89155 0.82999 1.4377 1.4135-0.66545 0.48896 0.40376c0.39342 0.32487 0.83923 0.58047 1.3184 0.75586l0.60108 0.22004 0.12754 1.5686h1.6582l0.13061-1.5607 0.59615-0.22082c0.47833-0.17718 0.92306-0.4344 1.3152-0.76065l0.4895-0.40729 1.4197 0.6685 0.83021-1.438-1.2918-0.89709 0.1115-0.63037c0.04433-0.25062 0.06732-0.50455 0.0687-0.75293-1.62e-4 -0.25548-0.02208-0.51049-0.06552-0.76225l-0.1084-0.62828 1.2852-0.89155-0.82999-1.4377-1.4135 0.66545-0.48896-0.40376c-0.39342-0.32487-0.83923-0.58047-1.3184-0.75586l-0.60108-0.22003-0.12754-1.5686zm-0.91981-1h3.5l0.15039 1.8496c0.5856 0.21437 1.1305 0.52676 1.6113 0.92383l1.6719-0.78711 1.75 3.0312-1.5176 1.0527c0.05309 0.30771 0.07988 0.61938 0.08008 0.93164-0.0017 0.31106-0.0298 0.62142-0.08399 0.92773l1.5215 1.0566-1.75 3.0312-1.6758-0.78906c-0.47924 0.39876-1.0228 0.71314-1.6074 0.92969l-0.1543 1.8438h-3.5l-0.15039-1.8496c-0.5856-0.21437-1.1305-0.52676-1.6113-0.92383l-1.6719 0.78711-1.75-3.0312 1.5176-1.0527c-0.053091-0.30771-0.07988-0.61938-0.080078-0.93164 0.0017091-0.31106 0.029805-0.62142 0.083984-0.92773l-1.5215-1.0566 1.75-3.0312 1.6758 0.78906c0.47924-0.39876 1.0228-0.71314 1.6074-0.92969z"/>
   <path d="m7 5c1.1046 0 2 0.89543 2 2s-0.89543 2-2 2-2-0.89543-2-2 0.89543-2 2-2zm0 3c0.55228 0 1-0.44772 1-1 0-0.55228-0.44772-1-1-1-0.55228 0-1 0.44772-1 1 0 0.55228 0.44772 1 1 1z"/>
  </g>
 </g>
 <desc>Created with Sketch.</desc>
 <defs>
  <filter id="filter835" x="-.24113" y="-.23888" width="1.4823" height="1.4778" color-interpolation-filters="sRGB">
   <feGaussianBlur stdDeviation="1.3936523"/>
  </filter>
 </defs>
 <g id="configure" fill="#ddd" fill-rule="evenodd">
  <g transform="translate(5,5)" fill="#ddd" fill-rule="nonzero">
   <path id="Path" d="m6.1698 1-0.13061 1.5607-0.59615 0.22082c-0.47833 0.17718-0.92306 0.4344-1.3152 0.76065l-0.4895 0.40729-1.4197-0.6685-0.83021 1.438 1.2917 0.89709-0.1115 0.63037c-0.044329 0.25062-0.067316 0.50455-0.0687 0.75293 1.619e-4 0.25548 0.02208 0.51049 0.065518 0.76225l0.1084 0.62828-1.2852 0.89155 0.82999 1.4377 1.4135-0.66545 0.48896 0.40376c0.39342 0.32487 0.83923 0.58047 1.3184 0.75586l0.60108 0.22004 0.12754 1.5686h1.6582l0.13061-1.5607 0.59615-0.22082c0.47833-0.17718 0.92306-0.4344 1.3152-0.76065l0.4895-0.40729 1.4197 0.6685 0.83021-1.438-1.2918-0.89709 0.1115-0.63037c0.04433-0.25062 0.06732-0.50455 0.0687-0.75293-1.62e-4 -0.25548-0.02208-0.51049-0.06552-0.76225l-0.1084-0.62828 1.2852-0.89155-0.82999-1.4377-1.4135 0.66545-0.48896-0.40376c-0.39342-0.32487-0.83923-0.58047-1.3184-0.75586l-0.60108-0.22003-0.12754-1.5686zm-0.91981-1h3.5l0.15039 1.8496c0.5856 0.21437 1.1305 0.52676 1.6113 0.92383l1.6719-0.78711 1.75 3.0312-1.5176 1.0527c0.05309 0.30771 0.07988 0.61938 0.08008 0.93164-0.0017 0.31106-0.0298 0.62142-0.08399 0.92773l1.5215 1.0566-1.75 3.0312-1.6758-0.78906c-0.47924 0.39876-1.0228 0.71314-1.6074 0.92969l-0.1543 1.8438h-3.5l-0.15039-1.8496c-0.5856-0.21437-1.1305-0.52676-1.6113-0.92383l-1.6719 0.78711-1.75-3.0312 1.5176-1.0527c-0.053091-0.30771-0.07988-0.61938-0.080078-0.93164 0.0017091-0.31106 0.029805-0.62142 0.083984-0.92773l-1.5215-1.0566 1.75-3.0312 1.6758 0.78906c0.47924-0.39876 1.0228-0.71314 1.6074-0.92969z"/>
   <path id="Combined-Shape" d="m7 5c1.1046 0 2 0.89543 2 2s-0.89543 2-2 2-2-0.89543-2-2 0.89543-2 2-2zm0 3c0.55228 0 1-0.44772 1-1 0-0.55228-0.44772-1-1-1-0.55228 0-1 0.44772-1 1 0 0.55228 0.44772 1 1 1z"/>
  </g>
 </g>
</svg>
